src/basic/300/u2191-up.svg

<svg width="33" height="48" viewBox="0 0 33 48" fill="none" xmlns="http://www.w3.org/2000/svg">
<path fill-rule="evenodd" clip-rule="evenodd" d="M16.8519 0.644787L32.4984 16.1448L31.7946 16.8552L16.9785 2.17785L16.9786 48L15.9786 48L15.9785 2.20462L0.84861 16.9191L0.151413 16.2022L16.1514 0.641559L16.5032 0.299393L16.8519 0.644787Z" fill="black"/>
</svg>

<svg width="33" height="48" viewBox="0 0 33 48" fill="none" xmlns="http://www.w3.org/2000/svg">
<path fill-rule="evenodd" clip-rule="evenodd" d="M16.8519,0.64479l15.6465,15.50001l-0.7038,0.7104l-14.8161,-14.67735l0.0001,45.82215h-1l-0.0001,-45.79538l-15.12989,14.71448l-0.6972,-0.7169l15.99999,-15.56064l0.3518,-0.34217z" fill="black"/>
</svg>
